X:66
T:Log Cabin, The
M:C|
L:1/8
Q:120
R:Reel (Key of D)
K:D
=CB, |: "D"A,DFD EGAB | =cdDE FGA^c | d2cd BdAG | "C"FEDB, =CDCB, |
"D"A,DFD EGAB | =cdDE FGA^c | d2cd BdAG |1 "A"FGEF "D"D2 =CB, :|2 "A"FGEF "D"D2Ac |:
"D"dAfA aAfA | "G"gafg egfe | "D"de=fe d=cAB | "C"=cAGE CEGc |
"D"Ad fA aAfA | "G"Bdef g2 ag | "D"faec "A"dBAG |1 FGEF "D"D2Ac :|2 FGEF "D"D2 |]
